X: 121
T: Song of the Badger Society (b)
C: Teton Sioux band 1911-1914
N: Derived from sioux121.krn
O: South Dakota, U.S.A.
N: Teton Sioux Music by Frances Densmore, 1918
Z: transcribed to **kern format by Craig Sapp
L: 1/8
M: 2/4
Q: 1/4=58
K: C clef=bass
%%linebreak <none>
G> G G/ E3/ ||  
[M:3/4](3G G G G> G (3E C C | 
(3E E C C> E (3A, G, G, ||  
[M:2/4](3G, G, G, (3G, G, G, | 
E, G, G,3/ A,/ | 
G, C/ B,< C C/ | 
(3A, G, G, (3A, G, G, | 
E,4 | 
E,3E, | 
E,4 :|]  



